X:66
T:Mrs. Graham (of Ballgown's) Reel
C:R. Petrie
S:Petrie's Second Collection of Strathspey Reels and Country Dances &c.
Z:Steve Wyrick , 6/11/04
N:Petrie's Second Collection, page 23
L:1/8
M:C
R:Reel
K:D
  d|ADFD (FAAB)|GBFA BEEd |ADFD FAGB|A(gfe) dDD:|
  B|Adfd  edf d|gefd eg=ce|ddfd eeae|fdec   dDDc|
    d2 fd edfd |gefd cdeg |fdcd AdFd|A(gfe) dDD||
|:F|AdFd  AdFA |BdFA BEEF |AdFd AdFA|GBAc   dDD:|
  F|Adfd  edfd |gefd eg=ce|d2fd eeag|fdec   dDDc|
    d2 fd edfd |gefd cdeg |fdcd AdFd|A(gfe) dDD|]
